icons/1_Primary/AppFolio.svg

<svg width="1024" height="1024" viewBox="0 0 1024 1024" fill="none" xmlns="http://www.w3.org/2000/svg">
<g clip-path="url(#clip0_2_1497)">
<path d="M512 1024C794.77 1024 1024 794.77 1024 512C1024 229.23 794.77 0 512 0C229.23 0 0 229.23 0 512C0 794.77 229.23 1024 512 1024Z" fill="#9ABEFF"/>
<path d="M582.491 516C587.75 514.903 592.881 513.261 597.801 511.1V542.82C597.801 612.72 530.681 628.03 504.801 628.03C469.511 628.03 431.501 609.28 431.501 578.88C431.501 546.15 460.941 535.88 522.831 526.4C538.911 524 565.131 519.34 582.491 516ZM774.691 512C774.691 653.38 657.081 768 512.001 768C366.921 768 249.311 653.38 249.311 512C249.311 370.62 366.921 256 512.001 256C657.081 256 774.691 370.62 774.691 512ZM654.121 480.77C654.121 470.36 653.791 460.51 653.791 451.88C653.791 397 627.471 369.56 605.371 356.2C582.794 343.672 557.327 337.283 531.511 337.67C476.741 337.67 436.391 353.09 411.461 383.42C397.085 401.398 388.405 423.258 386.531 446.2C386.475 446.792 386.475 447.388 386.531 447.98C387.216 455.31 390.638 462.113 396.114 467.033C401.591 471.953 408.719 474.63 416.081 474.53C423.039 475.239 430.004 473.247 435.535 468.967C441.066 464.686 444.741 458.444 445.801 451.53C452.151 422.03 466.231 394.7 526.391 394.7C558.281 394.7 579.101 401.27 590.011 414.79C593.75 418.832 596.592 423.62 598.348 428.839C600.105 434.058 600.736 439.589 600.201 445.07C600.201 455.07 596.411 467.33 566.811 473.85C547.611 478.02 527.401 480.36 507.871 482.59L498.521 483.7C387.751 496.8 371.051 555.24 371.051 588.86C371.051 649.86 444.411 684.37 497.391 686.04H507.191C527.229 686.477 547.159 682.978 565.851 675.74L567.461 675.07C585.775 668.093 602.368 657.244 616.104 643.265C629.841 629.285 640.396 612.505 647.051 594.07C655.681 570.82 654.901 523 654.121 480.77Z" fill="white"/>
</g>
<defs>
<clipPath id="clip0_2_1497">
<rect width="1024" height="1024" fill="white"/>
</clipPath>
</defs>
</svg>

<svg xmlns="http://www.w3.org/2000/svg" viewBox="0 0 1024 1024">
   <circle cx="512" cy="512" r="512" style="fill:#007bc7"/>
   <path d="M582.49 516a77.29 77.29 0 0 0 15.31-4.9v31.72c0 69.9-67.12 85.21-93 85.21-35.29 0-73.3-18.75-73.3-49.15 0-32.73 29.44-43 91.33-52.48 16.08-2.4 42.3-7.06 59.66-10.4zm192.2-4c0 141.38-117.61 256-262.69 256S249.31 653.38 249.31 512 366.92 256 512 256s262.69 114.62 262.69 256zm-120.57-31.23c0-10.41-.33-20.26-.33-28.89 0-54.88-26.32-82.32-48.42-95.68a147.66 147.66 0 0 0-73.86-18.53c-54.77 0-95.12 15.42-120.05 45.75a115.6 115.6 0 0 0-24.93 62.78 9.53 9.53 0 0 0 0 1.78 29.28 29.28 0 0 0 29.55 26.55 27.27 27.27 0 0 0 29.72-23c6.35-29.5 20.43-56.83 80.59-56.83 31.89 0 52.71 6.57 63.62 20.09a39 39 0 0 1 10.19 30.28c0 10-3.79 22.26-33.39 28.78-19.2 4.17-39.41 6.51-58.94 8.74l-9.35 1.11c-110.77 13.1-127.47 71.54-127.47 105.16 0 61 73.36 95.51 126.34 97.18h9.8a153.19 153.19 0 0 0 58.66-10.3l1.61-.67a136.14 136.14 0 0 0 79.59-81c8.63-23.25 7.85-71.07 7.07-113.3z" style="fill:#fff"/>
</svg>
